svgs/boorusama.svg

<svg width="192" height="192" viewBox="0 0 192 192" fill="none" xmlns="http://www.w3.org/2000/svg">
<path d="M171 50.2522L98.0704 21.3695C96.7339 20.8768 95.2661 20.8768 93.9296 21.3695L21 50.2522M171 50.2522V135.307C171 137.726 169.554 139.91 167.331 140.85L96 171M171 50.2522L96 84.6353M96 171L24.6692 140.85C22.4456 139.91 21 137.726 21 135.307V50.2522M96 171V84.6353M96 84.6353L21 50.2522" stroke="black" stroke-width="10" stroke-linejoin="round"/>
<path d="M50 40.1704L119.396 71.5302C121.726 72.415 123.266 74.6474 123.266 77.1392V90.5645C123.266 94.8289 126.59 96.7321 130.537 95.1182L143.847 88.4935C146.064 87.5871 147.53 85.4491 147.576 83.0546L147.919 67.1309C147.967 64.5831 146.401 62.2824 144.013 61.3932L74.814 31" stroke="black" stroke-width="8" stroke-linecap="round" stroke-linejoin="round"/>
</svg>

<svg width="192" height="192" fill="none" xmlns="http://www.w3.org/2000/svg"><path d="m96 84.635-71.33-32.7M96 84.634l71.331-32.7M96 84.634V167m75-116.748L98.07 21.37a5.985 5.985 0 0 0-4.14 0L21 50.252v85.055a6.016 6.016 0 0 0 3.67 5.543L96 171l71.331-30.15a6.017 6.017 0 0 0 3.669-5.543V50.252Z" stroke="#000" stroke-width="10" stroke-linecap="round" stroke-linejoin="round"/><path d="m50 40.17 69.396 31.36a6 6 0 0 1 3.87 5.61v13.424c0 4.265 3.324 6.168 7.271 4.554l13.31-6.624a6 6 0 0 0 3.729-5.44l.343-15.923a6.002 6.002 0 0 0-3.906-5.738L74.814 31" stroke="#000" stroke-width="10" stroke-linecap="round" stroke-linejoin="round"/></svg>
